public/assets/images/brands/python.svg

<svg id="python" xmlns="http://www.w3.org/2000/svg" viewBox="0 0 128 128"><path fill="#FFD845" d="M49.33 62h29.159c8.117 0 14.511-6.868 14.511-15.019v-27.798c0-7.912-6.632-13.856-14.555-15.176-5.014-.835-10.195-1.215-15.187-1.191-4.99.023-9.612.448-13.805 1.191-12.355 2.181-14.453 6.751-14.453 15.176v10.817h29v4h-40.224000000000004c-8.484 0-15.914 5.108-18.237 14.811-2.681 11.12-2.8 17.919 0 29.53 2.075 8.642 7.03 14.659 15.515 14.659h9.946v-13.048c0-9.637 8.428-17.952 18.33-17.952zm-1.838-39.11c-3.026 0-5.478-2.479-5.478-5.545 0-3.079 2.451-5.581 5.478-5.581 3.015 0 5.479 2.502 5.479 5.581-.001 3.066-2.465 5.545-5.479 5.545zM122.281 48.811c-2.098-8.448-6.103-14.811-14.599-14.811h-10.682v12.981c0 10.05-8.794 18.019-18.511 18.019h-29.159c-7.988 0-14.33 7.326-14.33 15.326v27.8c0 7.91 6.745 12.564 14.462 14.834 9.242 2.717 17.994 3.208 29.051 0 7.349-2.129 14.487-6.411 14.487-14.834v-11.126h-29v-4h43.682c8.484 0 11.647-5.776 14.599-14.66 3.047-9.145 2.916-17.799 0-29.529zm-41.955 55.606c3.027 0 5.479 2.479 5.479 5.547 0 3.076-2.451 5.579-5.479 5.579-3.015 0-5.478-2.502-5.478-5.579 0-3.068 2.463-5.547 5.478-5.547z"/></svg>

<svg version="1.1" id="python" xmlns="http://www.w3.org/2000/svg" xmlns:xlink="http://www.w3.org/1999/xlink" x="0px" y="0px"
	 viewBox="0 0 128 128" style="enable-background:new 0 0 128 128;" xml:space="preserve">
<path fill="#FFD845" d="M122.3,48.8c-2.1-8.4-6.1-14.8-14.6-14.8H97v13c0,10-8.8,18-18.5,18H49.3c-8,0-14.3,7.3-14.3,15.3v27.8
	c0,7.9,6.7,12.6,14.5,14.8c9.2,2.7,18,3.2,29.1,0c7.3-2.1,14.5-6.4,14.5-14.8V97H64v-4h43.7c8.5,0,11.6-5.8,14.6-14.7
	C125.3,69.2,125.2,60.5,122.3,48.8L122.3,48.8z M80.3,104.4c3,0,5.5,2.5,5.5,5.5c0,3.1-2.5,5.6-5.5,5.6c-3,0-5.5-2.5-5.5-5.6
	C74.8,106.9,77.3,104.4,80.3,104.4z"/>
<path fill="#3979B0" d="M78.4,4c-5-0.8-10.2-1.2-15.2-1.2c-5,0-9.6,0.4-13.8,1.2C37.1,6.2,35,10.8,35,19.2V30h29v4H23.8
	c-8.5,0-15.9,5.1-18.2,14.8c-2.7,11.1-2.8,17.9,0,29.5C7.6,87,12.6,93,21.1,93H31V80c0-9.6,8.4-18,18.3-18h29.2
	C86.6,62,93,55.1,93,47V19.2C93,11.3,86.4,5.3,78.4,4z M47.5,22.9c-3,0-5.5-2.5-5.5-5.5c0-3.1,2.5-5.6,5.5-5.6c3,0,5.5,2.5,5.5,5.6
	C53,20.4,50.5,22.9,47.5,22.9z"/>
</svg>
